src/images/svg/flags/tr.svg

<svg width="24" height="16" viewBox="0 0 24 16" fill="none" xmlns="http://www.w3.org/2000/svg">
<path d="M22 0H2C0.89543 0 0 0.89543 0 2V14C0 15.1046 0.89543 16 2 16H22C23.1046 16 24 15.1046 24 14V2C24 0.89543 23.1046 0 22 0Z" fill="#E92434"/>
<path fill-rule="evenodd" clip-rule="evenodd" d="M11.5555 3C13.1596 3 14.5874 3.75543 15.5023 4.92996C14.7963 4.41679 13.9086 4.11111 12.9444 4.11111C10.6432 4.11111 8.77772 5.85223 8.77772 8C8.77772 10.1478 10.6432 11.8889 12.9444 11.8889C13.9086 11.8889 14.7963 11.5832 15.5023 11.07C14.5874 12.2446 13.1596 13 11.5555 13C8.79407 13 6.5555 10.7614 6.5555 8C6.5555 5.23858 8.79407 3 11.5555 3ZM16.0512 5.65666L16.9369 6.99406L18.4901 6.59285L17.4918 7.84852L18.3533 9.20165L16.8507 8.6403L15.83 9.87778L15.8995 8.27518L14.4072 7.68686L15.9528 7.25775L16.0512 5.65666Z" fill="white"/>
<path fill-rule="evenodd" clip-rule="evenodd" d="M22 1H2C1.44772 1 1 1.44772 1 2V14C1 14.5523 1.44772 15 2 15H22C22.5523 15 23 14.5523 23 14V2C23 1.44771 22.5523 1 22 1ZM2 0C0.895431 0 0 0.895431 0 2V14C0 15.1046 0.89543 16 2 16H22C23.1046 16 24 15.1046 24 14V2C24 0.895431 23.1046 0 22 0H2Z" fill="black" fill-opacity="0.04"/>
</svg>

<svg width="24" height="16" fill="none" xmlns="http://www.w3.org/2000/svg"><path d="M22 0H2a2 2 0 0 0-2 2v12a2 2 0 0 0 2 2h20a2 2 0 0 0 2-2V2a2 2 0 0 0-2-2Z" fill="#E92434"/><path fill-rule="evenodd" clip-rule="evenodd" d="M11.556 3c1.604 0 3.031.755 3.946 1.93a4.341 4.341 0 0 0-2.558-.819c-2.3 0-4.166 1.741-4.166 3.889 0 2.148 1.865 3.889 4.166 3.889a4.34 4.34 0 0 0 2.558-.819A5 5 0 1 1 11.555 3Zm4.495 2.657.886 1.337 1.553-.401-.998 1.256.861 1.353-1.502-.562-1.021 1.238.07-1.603-1.493-.588 1.546-.43.098-1.6Z" fill="#fff"/><path fill-rule="evenodd" clip-rule="evenodd" d="M22 1H2a1 1 0 0 0-1 1v12a1 1 0 0 0 1 1h20a1 1 0 0 0 1-1V2a1 1 0 0 0-1-1ZM2 0a2 2 0 0 0-2 2v12a2 2 0 0 0 2 2h20a2 2 0 0 0 2-2V2a2 2 0 0 0-2-2H2Z" fill="#000" fill-opacity=".04"/></svg>
